assets/icons/lion.svg

<svg width="272" height="390" viewBox="0 0 272 390" fill="none" xmlns="http://www.w3.org/2000/svg">
<g clip-path="url(#clip0_149_769)">
<path d="M239.767 182.494C242.977 183.729 241.847 182.703 243.527 185.378C242.167 189.402 216.847 207.787 211.267 212.068C191.277 227.474 171.197 242.77 151.027 257.955C132.627 271.855 106.297 293.945 87.8973 305.755C87.5073 305.605 85.7273 304.295 85.3073 304.005L85.1473 301.865C87.8873 297.895 127.147 268.805 133.827 263.695L239.767 182.494Z" fill="#F1F1F1"/>
<path d="M145.037 125.067C152.097 124.081 158.987 127.787 162.067 134.226C165.137 140.665 163.687 148.353 158.477 153.226C156.237 155.321 153.447 156.745 150.437 157.334C144.597 158.478 138.597 156.359 134.767 151.8C130.937 147.242 129.887 140.964 132.017 135.406C134.157 129.849 139.137 125.889 145.037 125.067Z" fill="#F1F1F1"/>
<path d="M131.457 153.495L135.047 155.373L135.417 157.301C131.617 162.45 109.697 181.126 103.447 186.625L33.6473 248.116C30.6473 247.123 31.8373 247.99 29.9773 245.393C30.5873 240.997 120.337 163.73 131.457 153.495Z" fill="#F1F1F1"/>
<path d="M11.2473 243.396C19.7973 240.608 28.9873 245.266 31.7873 253.807C34.5973 262.345 29.9572 271.545 21.4172 274.365C12.8672 277.195 3.6272 272.545 0.817201 263.975C-1.9928 255.413 2.67726 246.192 11.2473 243.396Z" fill="#E64446"/>
<path d="M252.457 154.12C258.287 153.026 264.257 155.194 268.027 159.779C271.807 164.363 272.787 170.637 270.587 176.153C268.397 181.67 263.377 185.556 257.487 186.295C248.747 187.39 240.717 181.346 239.357 172.646C237.997 163.947 243.797 155.742 252.457 154.12Z" fill="#F1F1F1"/>
<path d="M71.1772 301.355C75.8872 300.655 80.5973 302.555 83.5073 306.315C86.4173 310.085 87.0572 315.125 85.1872 319.495C83.3172 323.875 79.2273 326.895 74.4973 327.395C67.3973 328.145 60.9972 323.085 60.0972 315.995C59.1972 308.915 64.1172 302.415 71.1772 301.355Z" fill="#F1F1F1"/>
<path d="M107.697 1.30622C112.017 -0.786784 117.137 -0.339759 121.027 2.46924C124.917 5.27924 126.957 9.99725 126.327 14.7553C125.697 19.5123 122.507 23.5412 118.017 25.2442C111.497 27.7222 104.177 24.6232 101.407 18.2122C98.6474 11.8012 101.417 4.35122 107.697 1.30622Z" fill="#F1F1F1"/>
<path d="M15.9272 276.285C16.9572 277.115 17.6173 277.905 18.5273 278.875C19.8673 285.675 15.7272 364.765 13.5472 368.805C11.6572 367.325 9.07734 366.015 9.53734 363.355C11.8673 349.835 9.94724 283.445 15.9272 276.285Z" fill="#F1F1F1"/>
<path d="M101.327 91.7655C106.577 91.3695 110.047 90.9925 113.957 94.8965C116.167 99.7065 113.847 104.675 114.597 105.872C118.127 111.512 133.457 117.452 134.167 125.877L131.747 128.014C124.347 123.942 118.097 115.791 111.727 110.669C110.707 109.852 103.097 110.108 97.1772 106.583C93.1372 100.734 96.8573 96.3715 101.327 91.7655Z" fill="#F1F1F1"/>
<path d="M108.677 26.9658C111.297 27.7598 111.247 27.5758 113.137 29.4988C114.277 35.4158 110.347 81.8538 109.277 89.6008C106.447 89.0248 106.577 89.1858 104.397 87.3388C103.567 78.8448 107.107 35.2638 108.677 26.9658Z" fill="#F1F1F1"/>
<path d="M60.5873 324.395C63.4173 326.695 62.5773 325.305 63.6573 328.365C61.8173 333.065 33.2773 367.365 28.1473 373.045C25.2173 370.515 25.1173 371.295 24.6573 368.375C30.7373 359.835 53.4873 331.305 60.5873 324.395Z" fill="#F1F1F1"/>
<path d="M200.657 122.148C205.907 120.801 211.257 123.98 212.577 129.239C213.897 134.497 210.697 139.829 205.427 141.129C200.197 142.42 194.907 139.241 193.597 134.017C192.277 128.792 195.437 123.488 200.657 122.148Z" fill="#F1F1F1"/>
<path d="M12.4873 370.565C15.7273 369.135 19.4772 369.575 22.2972 371.715C25.1172 373.845 26.5572 377.345 26.0672 380.845C25.5672 384.345 23.2073 387.305 19.9073 388.575C14.9673 390.475 9.41732 388.085 7.40732 383.195C5.38732 378.295 7.64727 372.695 12.4873 370.565Z" fill="#F1F1F1"/>
<path d="M152.017 1.42322C155.017 -0.358777 158.747 -0.384794 161.767 1.35621C164.787 3.09721 166.637 6.33323 166.607 9.82123C166.567 13.3102 164.657 16.5083 161.597 18.1873C156.977 20.7213 151.177 19.0862 148.567 14.5122C145.957 9.93921 147.487 4.11422 152.017 1.42322Z" fill="#F1F1F1"/>
<path d="M213.877 134.255C219.817 134.779 237.207 147.289 242.377 151.415C244.677 153.256 243.977 154.822 243.767 157.392C236.827 155.705 221.267 145.096 215.477 140.358C213.347 138.611 213.827 136.58 213.877 134.255Z" fill="#F1F1F1"/>
<path d="M186.607 130.003C188.447 129.975 189.217 130.335 191.047 130.768L191.467 132.604C186.697 137.2 176.567 138.263 170.217 139.146C166.617 138.992 168.127 139.623 165.487 137.281L166.137 135.565C171.067 132.685 180.777 131.138 186.607 130.003Z" fill="#F1F1F1"/>
<path d="M128.627 9.02743C133.747 8.66243 141.407 7.02843 145.027 10.7774L144.867 13.9834C139.267 14.1614 136.317 15.2404 130.797 13.9494C128.247 11.5384 129.137 13.0244 128.627 9.02743Z" fill="#F1F1F1"/>
</g>
<defs>
<clipPath id="clip0_149_769">
<rect width="272" height="390" fill="white"/>
</clipPath>
</defs>
</svg>

<svg xmlns="http://www.w3.org/2000/svg" width="272" height="390" fill="none" viewBox="0 0 272 390"><g clip-path="url(#a)"><path fill="#f1f1f1" d="M239.767 182.494c3.21 1.235 2.08.209 3.76 2.884-1.36 4.024-26.68 22.409-32.26 26.69a6710 6710 0 0 1-60.24 45.887c-18.4 13.9-44.73 35.99-63.13 47.8-.39-.15-2.17-1.46-2.59-1.75l-.16-2.14c2.74-3.97 42-33.06 48.68-38.17zM145.037 125.067a16.37 16.37 0 0 1 17.03 9.159 16.37 16.37 0 0 1-3.59 19 16.4 16.4 0 0 1-8.04 4.108 16.36 16.36 0 0 1-15.67-5.534 16.38 16.38 0 0 1-2.75-16.394 16.37 16.37 0 0 1 13.02-10.339M131.457 153.495l3.59 1.878.37 1.928c-3.8 5.149-25.72 23.825-31.97 29.324l-69.8 61.491c-3-.993-1.81-.126-3.67-2.723.61-4.396 90.36-81.663 101.48-91.898"/><path fill="#e64446" d="M11.247 243.396c8.55-2.788 17.74 1.87 20.54 10.411 2.81 8.538-1.83 17.738-10.37 20.558-8.55 2.83-17.79-1.82-20.6-10.39-2.81-8.562 1.86-17.783 10.43-20.579"/><path fill="#f1f1f1" d="M252.457 154.12a16.28 16.28 0 0 1 15.57 5.659 16.26 16.26 0 0 1 2.56 16.374 16.27 16.27 0 0 1-13.1 10.142c-8.74 1.095-16.77-4.949-18.13-13.649s4.44-16.904 13.1-18.526M71.177 301.355c4.71-.7 9.42 1.2 12.33 4.96 2.91 3.77 3.55 8.81 1.68 13.18-1.87 4.38-5.96 7.4-10.69 7.9-7.1.75-13.5-4.31-14.4-11.4-.9-7.08 4.02-13.58 11.08-14.64M107.697 1.306a13.05 13.05 0 0 1 18.63 13.45 13.05 13.05 0 0 1-8.31 10.488c-6.52 2.478-13.84-.62-16.61-7.032-2.76-6.41.01-13.86 6.29-16.906M15.927 276.285c1.03.83 1.69 1.62 2.6 2.59 1.34 6.8-2.8 85.89-4.98 89.93-1.89-1.48-4.47-2.79-4.01-5.45 2.33-13.52.41-79.91 6.39-87.07M101.327 91.766c5.25-.397 8.72-.773 12.63 3.13 2.21 4.81-.11 9.779.64 10.976 3.53 5.64 18.86 11.58 19.57 20.005l-2.42 2.137c-7.4-4.072-13.65-12.223-20.02-17.345-1.02-.817-8.63-.561-14.55-4.086-4.04-5.849-.32-10.211 4.15-14.817M108.677 26.966c2.62.794 2.57.61 4.46 2.533 1.14 5.917-2.79 52.355-3.86 60.102-2.83-.576-2.7-.415-4.88-2.262-.83-8.494 2.71-52.075 4.28-60.373M60.587 324.395c2.83 2.3 1.99.91 3.07 3.97-1.84 4.7-30.38 39-35.51 44.68-2.93-2.53-3.03-1.75-3.49-4.67 6.08-8.54 28.83-37.07 35.93-43.98M200.657 122.148c5.25-1.347 10.6 1.832 11.92 7.091 1.32 5.258-1.88 10.59-7.15 11.89-5.23 1.291-10.52-1.888-11.83-7.112-1.32-5.225 1.84-10.529 7.06-11.869M12.487 370.565a9.72 9.72 0 0 1 9.81 1.15 9.75 9.75 0 0 1 3.77 9.13c-.5 3.5-2.86 6.46-6.16 7.73-4.94 1.9-10.49-.49-12.5-5.38-2.02-4.9.24-10.5 5.08-12.63M152.017 1.423a9.65 9.65 0 0 1 9.75-.067 9.68 9.68 0 0 1 4.84 8.465 9.66 9.66 0 0 1-5.01 8.366c-4.62 2.534-10.42.9-13.03-3.675-2.61-4.573-1.08-10.398 3.45-13.089M213.877 134.255c5.94.524 23.33 13.034 28.5 17.16 2.3 1.841 1.6 3.407 1.39 5.977-6.94-1.687-22.5-12.296-28.29-17.034-2.13-1.747-1.65-3.778-1.6-6.103M186.607 130.003c1.84-.028 2.61.332 4.44.765l.42 1.836c-4.77 4.596-14.9 5.659-21.25 6.542-3.6-.154-2.09.477-4.73-1.865l.65-1.716c4.93-2.88 14.64-4.427 20.47-5.562M128.627 9.027c5.12-.365 12.78-1.999 16.4 1.75l-.16 3.206c-5.6.178-8.55 1.257-14.07-.034-2.55-2.41-1.66-.925-2.17-4.922"/></g><defs><clipPath id="a"><path fill="#fff" d="M0 0h272v390H0z"/></clipPath></defs></svg>
